file/instacart.svg

<svg clip-rule="evenodd" fill-rule="evenodd" stroke-linejoin="round" stroke-miterlimit="1.41421" viewBox="0 0 560 400" xmlns="http://www.w3.org/2000/svg"><g transform="matrix(1.16401 0 0 1.16401 47.4807 25.431)"><path d="m52.9 142.3c4.6 4.6 8.3 12.1 6.2 16.6-5.7 12-48.5 33-52.1 29.3-3.6-3.6 17.4-46.4 29.3-52.1 4.4-2.1 12 1.6 16.6 6.2z" fill="#ff8200"/><path d="m75.5 137.3c-.7-2.8-2.6-5.5-5.5-5.9-5.2-.6-13.4 8.6-12.8 10.8s12.2 6 16.5 2.9c2.2-1.6 2.6-5.1 1.8-7.8zm-16.1-25.5c3.9 1 7.8 3.7 8.2 7.7.8 7.3-12 18.8-15.1 17.9-3.1-.8-8.4-17-4.1-23.1 2.3-3.1 7.2-3.5 11-2.5z" fill="#43b02a"/></g><path d="m145.2 150.5-3.8-.6c-3.6-.5-5.8-1.7-5.8-3.9 0-2.5 2.7-4 6.8-4 2.9 0 5.2 1.1 7.4 2.2l.4.2c.5.3 1.1.4 1.6.4 1.3 0 2.6-.7 3.2-1.9l.3-.6c.5-.9.6-1.9.3-2.9s-1-1.8-1.9-2.2c-3.3-1.6-6.8-3.1-11.5-3.1-9.7 0-16 4.7-16 12.3 0 6.2 4.5 10.1 12.9 11.3l3.9.5c4.1.6 6.1 1.8 6.1 3.7 0 1.8-1 4.1-7.3 4.1-3.5 0-7-.9-9.9-2.7-.6-.4-1.2-.6-1.9-.6-1.3 0-2.5.7-3.1 1.7l-.2.3c-.5.9-.7 1.9-.4 2.9s.9 1.8 1.8 2.3c5 2.8 10.8 3.8 13.8 3.8 10.1 0 16.4-4.4 16.4-12.3.1-6.1-4.4-9.7-13.1-10.9zm117.9 13.6c-.7-.8-1.8-1.3-2.9-1.3-.7 0-1.5.2-2.1.6-2.1 1.3-4.3 2-6.5 2-6.1 0-10.5-4.8-10.5-11.4s4.4-11.4 10.5-11.4c2.3 0 4.4.6 6.4 1.9 1.5 1 3.7.8 5-.6l.3-.3c.9-.9 1.3-2.2 1.1-3.4-.1-1.2-.8-2.3-1.8-3-3-2-6.7-3-10.7-3-11.7 0-19.9 8.2-19.9 19.9s8.2 19.9 19.9 19.9c4.1 0 7.8-1.1 10.8-3.1 1-.7 1.7-1.8 1.8-3 .2-1.2-.2-2.4-1.1-3.4zm-189.3-43.4c-3 0-5.4 2.4-5.4 5.5s2.3 5.4 5.4 5.4 5.5-2.4 5.5-5.4c0-3.1-2.4-5.5-5.5-5.5zm1.6 13.8h-3.2c-1.6 0-2.8 1.3-2.8 2.8v32.8c0 1.6 1.3 2.8 2.8 2.8h3.2c1.6 0 2.8-1.3 2.8-2.8v-32.8c.1-1.6-1.2-2.8-2.8-2.8zm105.2 30.8c-3.6 0-7.8-2.8-7.8-7.8v-14.8h7.8c1.6 0 2.8-1.3 2.8-2.8v-2.6c0-1.6-1.3-2.8-2.8-2.8h-7.8v-8.5c0-1.6-1.3-2.8-2.8-2.8h-3.4c-1.6 0-2.8 1.3-2.8 2.8v31c0 8.9 6.8 16.8 16.2 16.8.9 0 1.8-.4 2.5-1 .7-.7 1-1.6 1-2.5v-2.2c0-1.5-1.3-2.8-2.9-2.8zm-77.6-31.1c-11.4 0-17.7 9.1-17.7 16.9v19.1c0 1.6 1.3 2.8 2.8 2.8h3.2c1.6 0 2.8-1.3 2.8-2.8v-17.6c0-5.9 3.6-9.8 8.8-9.8s8.8 3.9 8.8 9.8v17.6c0 1.6 1.3 2.8 2.8 2.8h3.2c1.6 0 2.8-1.3 2.8-2.8v-19.2c.2-7.8-6.2-16.8-17.5-16.8zm233.9.3c-1.2-.3-4.3-.4-5.9-.4h-.4c-8.8 0-16.9 7.2-16.9 17.1v18.8c0 1.6 1.3 2.8 2.8 2.8h3.2c1.6 0 2.8-1.3 2.8-2.8v-18.5c0-5.4 3.8-8.9 8.6-8.9.9 0 1.8.1 2.7.3.2 0 .5.1.7.1 1.8 0 3.4-1.2 3.8-3 .2-1 .4-1.7.6-2.3.2-.7.1-1.4-.3-2s-1-1-1.7-1.2zm23.8 8.3c1.6 0 2.8-1.3 2.8-2.8v-2.6c0-1.6-1.3-2.8-2.8-2.8h-7.8v-8.5c0-1.6-1.3-2.8-2.8-2.8h-3.4c-1.6 0-2.8 1.3-2.8 2.8v30.9c0 8.9 6.8 16.8 16.2 16.8.9 0 1.8-.4 2.5-1 .7-.7 1-1.6 1-2.5v-2.2c0-1.6-1.3-2.8-2.9-2.8-3.6 0-7.8-2.8-7.8-7.8v-14.8h7.8zm-61.9-5.6c-3-2-6.7-3-10.8-3h-.2-.2c-4 0-7.8 1.1-10.7 3-5.4 3.4-8.7 9.4-8.7 16.8 0 7.8 3.6 14 9.5 17.3 2.7 1.6 6 2.6 9.5 2.6 6.4 0 10.2-3.6 11.5-5.2v1.4c0 1.6 1.3 2.8 2.8 2.8h3.2c1.6 0 2.8-1.3 2.8-2.8v-16c0-7.5-3.3-13.5-8.7-16.9zm-7.4 27.7c-1 .3-2.1.5-3.1.6h-.2-.2-.2-.2c-1.1 0-2.1-.2-3.1-.6-4.2-1.5-7-5.6-7-10.9 0-6.2 3.9-10.8 9.4-11.4h2.4c5.5.6 9.4 5.2 9.4 11.4-.2 5.3-3 9.4-7.2 10.9zm-73.5-27.7c-3-2-6.7-3-10.8-3h-.2-.2c-4 0-7.8 1.1-10.7 3-5.4 3.4-8.7 9.4-8.7 16.8 0 7.8 3.6 14 9.5 17.3 2.7 1.6 6 2.6 9.5 2.6 6.4 0 10.2-3.6 11.5-5.2v1.4c0 1.6 1.3 2.8 2.8 2.8h3.2c1.6 0 2.8-1.3 2.8-2.8v-16c0-7.5-3.3-13.5-8.7-16.9zm-7.4 27.7c-1 .3-2.1.5-3.1.6h-.2-.2-.2-.2c-1.1 0-2.1-.2-3.1-.6-4.2-1.5-7-5.6-7-10.9 0-6.2 3.9-10.8 9.4-11.4h2.4c5.5.6 9.4 5.2 9.4 11.4-.2 5.3-3 9.4-7.2 10.9z" fill="#43b02a" fill-rule="nonzero" transform="matrix(1.16401 0 0 1.16401 81.612732428 30.6304697086)"/></svg>

<?xml version="1.0" encoding="UTF-8" standalone="no"?>
<!DOCTYPE svg PUBLIC "-//W3C//DTD SVG 1.1//EN" "http://www.w3.org/Graphics/SVG/1.1/DTD/svg11.dtd">
<svg width="100%" height="100%" viewBox="0 0 560 400" version="1.1" xmlns="http://www.w3.org/2000/svg" xmlns:xlink="http://www.w3.org/1999/xlink" xml:space="preserve" xmlns:serif="http://www.serif.com/" style="fill-rule:evenodd;clip-rule:evenodd;stroke-linejoin:round;stroke-miterlimit:1.41421;">
    <g transform="matrix(1.16401,0,0,1.16401,47.4807,25.431)">
        <g id="Carrot">
            <path id="Carrot_2_" d="M52.9,142.3C57.5,146.9 61.2,154.4 59.1,158.9C53.4,170.9 10.6,191.9 7,188.2C3.4,184.6 24.4,141.8 36.3,136.1C40.7,134 48.3,137.7 52.9,142.3L52.9,142.3Z" style="fill:rgb(255,130,0);"/>
            <path id="Carrot_1_" d="M75.5,137.3C74.8,134.5 72.9,131.8 70,131.4C64.8,130.8 56.6,140 57.2,142.2C57.8,144.4 69.4,148.2 73.7,145.1C75.9,143.5 76.3,140 75.5,137.3ZM59.4,111.8C63.3,112.8 67.2,115.5 67.6,119.5C68.4,126.8 55.6,138.3 52.5,137.4C49.4,136.6 44.1,120.4 48.4,114.3C50.7,111.2 55.6,110.8 59.4,111.8L59.4,111.8Z" style="fill:rgb(67,176,42);"/>
        </g>
        <g id="text" transform="matrix(1,0,0,1,29.3228,4.46686)">
            <path d="M145.2,150.5L141.4,149.9C137.8,149.4 135.6,148.2 135.6,146C135.6,143.5 138.3,142 142.4,142C145.3,142 147.6,143.1 149.8,144.2L150.2,144.4C150.7,144.7 151.3,144.8 151.8,144.8C153.1,144.8 154.4,144.1 155,142.9L155.3,142.3C155.8,141.4 155.9,140.4 155.6,139.4C155.3,138.4 154.6,137.6 153.7,137.2C150.4,135.6 146.9,134.1 142.2,134.1C132.5,134.1 126.2,138.8 126.2,146.4C126.2,152.6 130.7,156.5 139.1,157.7L143,158.2C147.1,158.8 149.1,160 149.1,161.9C149.1,163.7 148.1,166 141.8,166C138.3,166 134.8,165.1 131.9,163.3C131.3,162.9 130.7,162.7 130,162.7C128.7,162.7 127.5,163.4 126.9,164.4L126.7,164.7C126.2,165.6 126,166.6 126.3,167.6C126.6,168.6 127.2,169.4 128.1,169.9C133.1,172.7 138.9,173.7 141.9,173.7C152,173.7 158.3,169.3 158.3,161.4C158.4,155.3 153.9,151.7 145.2,150.5ZM263.1,164.1C262.4,163.3 261.3,162.8 260.2,162.8C259.5,162.8 258.7,163 258.1,163.4C256,164.7 253.8,165.4 251.6,165.4C245.5,165.4 241.1,160.6 241.1,154C241.1,147.4 245.5,142.6 251.6,142.6C253.9,142.6 256,143.2 258,144.5C259.5,145.5 261.7,145.3 263,143.9L263.3,143.6C264.2,142.7 264.6,141.4 264.4,140.2C264.3,139 263.6,137.9 262.6,137.2C259.6,135.2 255.9,134.2 251.9,134.2C240.2,134.2 232,142.4 232,154.1C232,165.8 240.2,174 251.9,174C256,174 259.7,172.9 262.7,170.9C263.7,170.2 264.4,169.1 264.5,167.9C264.7,166.7 264.3,165.5 263.4,164.5L263.1,164.1ZM73.8,120.7C70.8,120.7 68.4,123.1 68.4,126.2C68.4,129.3 70.7,131.6 73.8,131.6C76.9,131.6 79.3,129.2 79.3,126.2C79.3,123.1 76.9,120.7 73.8,120.7ZM75.4,134.5L72.2,134.5C70.6,134.5 69.4,135.8 69.4,137.3L69.4,170.1C69.4,171.7 70.7,172.9 72.2,172.9L75.4,172.9C77,172.9 78.2,171.6 78.2,170.1L78.2,137.3C78.3,135.7 77,134.5 75.4,134.5ZM180.6,165.3C177,165.3 172.8,162.5 172.8,157.5L172.8,142.7L180.6,142.7C182.2,142.7 183.4,141.4 183.4,139.9L183.4,137.3C183.4,135.7 182.1,134.5 180.6,134.5L172.8,134.5L172.8,126C172.8,124.4 171.5,123.2 170,123.2L166.6,123.2C165,123.2 163.8,124.5 163.8,126L163.8,157C163.8,165.9 170.6,173.8 180,173.8C180.9,173.8 181.8,173.4 182.5,172.8C183.2,172.1 183.5,171.2 183.5,170.3L183.5,168.1C183.5,166.6 182.2,165.3 180.6,165.3ZM103,134.2C91.6,134.2 85.3,143.3 85.3,151.1L85.3,170.2C85.3,171.8 86.6,173 88.1,173L91.3,173C92.9,173 94.1,171.7 94.1,170.2L94.1,152.6C94.1,146.7 97.7,142.8 102.9,142.8C108.1,142.8 111.7,146.7 111.7,152.6L111.7,170.2C111.7,171.8 113,173 114.5,173L117.7,173C119.3,173 120.5,171.7 120.5,170.2L120.5,151C120.7,143.2 114.3,134.2 103,134.2ZM336.9,134.5C335.7,134.2 332.6,134.1 331,134.1L330.6,134.1C321.8,134.1 313.7,141.3 313.7,151.2L313.7,170C313.7,171.6 315,172.8 316.5,172.8L319.7,172.8C321.3,172.8 322.5,171.5 322.5,170L322.5,151.5C322.5,146.1 326.3,142.6 331.1,142.6C332,142.6 332.9,142.7 333.8,142.9C334,142.9 334.3,143 334.5,143C336.3,143 337.9,141.8 338.3,140C338.5,139 338.7,138.3 338.9,137.7C339.1,137 339,136.3 338.6,135.7C338.2,135.1 337.6,134.7 336.9,134.5ZM360.7,142.8C362.3,142.8 363.5,141.5 363.5,140L363.5,137.4C363.5,135.8 362.2,134.6 360.7,134.6L352.9,134.6L352.9,126.1C352.9,124.5 351.6,123.3 350.1,123.3L346.7,123.3C345.1,123.3 343.9,124.6 343.9,126.1L343.9,157C343.9,165.9 350.7,173.8 360.1,173.8C361,173.8 361.9,173.4 362.6,172.8C363.3,172.1 363.6,171.2 363.6,170.3L363.6,168.1C363.6,166.5 362.3,165.3 360.7,165.3C357.1,165.3 352.9,162.5 352.9,157.5L352.9,142.7L360.7,142.7L360.7,142.8ZM298.8,137.2C295.8,135.2 292.1,134.2 288,134.2L287.8,134.2L287.6,134.2C283.6,134.2 279.8,135.3 276.9,137.2C271.5,140.6 268.2,146.6 268.2,154C268.2,161.8 271.8,168 277.7,171.3C280.4,172.9 283.7,173.9 287.2,173.9C293.6,173.9 297.4,170.3 298.7,168.7L298.7,170.1C298.7,171.7 300,172.9 301.5,172.9L304.7,172.9C306.3,172.9 307.5,171.6 307.5,170.1L307.5,154.1C307.5,146.6 304.2,140.6 298.8,137.2ZM291.4,164.9C290.4,165.2 289.3,165.4 288.3,165.5L288.1,165.5L287.9,165.5L287.7,165.5L287.5,165.5C286.4,165.5 285.4,165.3 284.4,164.9C280.2,163.4 277.4,159.3 277.4,154C277.4,147.8 281.3,143.2 286.8,142.6L289.2,142.6C294.7,143.2 298.6,147.8 298.6,154C298.4,159.3 295.6,163.4 291.4,164.9ZM217.9,137.2C214.9,135.2 211.2,134.2 207.1,134.2L206.9,134.2L206.7,134.2C202.7,134.2 198.9,135.3 196,137.2C190.6,140.6 187.3,146.6 187.3,154C187.3,161.8 190.9,168 196.8,171.3C199.5,172.9 202.8,173.9 206.3,173.9C212.7,173.9 216.5,170.3 217.8,168.7L217.8,170.1C217.8,171.7 219.1,172.9 220.6,172.9L223.8,172.9C225.4,172.9 226.6,171.6 226.6,170.1L226.6,154.1C226.6,146.6 223.3,140.6 217.9,137.2ZM210.5,164.9C209.5,165.2 208.4,165.4 207.4,165.5L207.2,165.5L207,165.5L206.8,165.5L206.6,165.5C205.5,165.5 204.5,165.3 203.5,164.9C199.3,163.4 196.5,159.3 196.5,154C196.5,147.8 200.4,143.2 205.9,142.6L208.3,142.6C213.8,143.2 217.7,147.8 217.7,154C217.5,159.3 214.7,163.4 210.5,164.9Z" style="fill:rgb(67,176,42);fill-rule:nonzero;"/>
        </g>
    </g>
</svg>
